src/components/Games/ALTTP/assets/Ganon Sign.svg

<svg xmlns="http://www.w3.org/2000/svg" viewBox="0 0 18 17"><g data-name="Layer 2"><g data-name="Layer 1"><g data-name="Ganon Sign"><path d="M8 2H1V1h6V0h4v1h6v1h-7V1H8zm0 1h2V2H8zm0 14h2v-1H8zM18 2v3h-1v8h-1v1h-5v2h-1v-2H8v2H7v-2H2v-1H1V5H0V2h1v2h16V2zm-2 6h-1V5h-2v2h-1V6h-1V5H7v1H6v1H5V5H3v3H2v4h1v1h1v-1h1v1h1v-1h1v1h4v-1h1v1h1v-1h1v1h1v-1h1zm-8 3H7v1h1zm2 0v1h1v-1zm-5 0v1h1v-1zm7 0v1h1v-1zm-9 0v1h1v-1zm11 0v1h1v-1zm-8-1V8H5v2zm8-2V7h-1v1zm-2 2h1V8h-1zm2 1v-1h-1v1zM4 11h1v-1H4zm10-2h1V8h-1zM4 8h1V7H4zm0 1V8H3v1z" fill="#282827"/><path d="M17 2v2H1V2h7v1h2V2zm-7-1H8v1h2zm0 13H8v2h2zm-5-2v1h1v-1zm-2-1h1v-1h1V8H4v1H3V8H2v4h1zm9 1v1h1v-1zm3-3h-1V8h-1v2h1v1h1v1h1V8h-1z" fill="#b96128"/><path d="M15 5v2h-1V6h-1V5zm-4 6h2v-1h-2zm1-3V7h-1v1zm-1-2H7v1h1v1h2V7h1zm-3 5h2v-1H8zm-3 0h2v-1H5zm1-3h1V7H6zM5 5H3v2h1V6h1z" fill="#87c8a0"/><path d="M14 6v1h-1V6zM4 7h1V6H4zm4 0H7v1h1zm3 0h-1v1h1zm-5 4v1h1v-1zm5 1h1v-1h-1zm-1-1H8v1H7v1h4v-1h-1z" fill="#5088a8"/><path d="M15 7v1h-1V7zm-3 1h1V7h-1zm-1-2v1h1V6zM7 5v1h4V5zM6 7h1V6H6zM5 8h1V7H5zM3 8h1V7H3zm4 1h1v1h2V9h1V8H7zm0 2h1v-1H7zm4 0v-1h-1v1z" fill="#385088"/><path d="M12 10h-1V9h1zM7 9H6v1h1z" fill="#bf9f2f"/><path d="M12 9h-1V8h1zm-1 0h-1v1h1zM7 8H6v1h1zm1 1H7v1h1zm-4 3H3v1h1zm1-1H4v1h1zm9 0h-1v1h1zm1 1h-1v1h1z" fill="#f7f8f8"/></g></g></g></svg>

<svg xmlns="http://www.w3.org/2000/svg" viewBox="0 0 18 18"><g id="Ganon_Sign"><path d="M8,2H1V1H7V0h4V1h6V2H10V1H8ZM8,3h2V2H8ZM8,17h2V16H8ZM18,2V5H17v8H16v1H11v2H10V14H8v2H7V14H2V13H1V5H0V2H1V4H17V2ZM16,8H15V5H13V7H12V6H11V5H7V6H6V7H5V5H3V8H2v4H3v1H4V12H5v1H6V12H7v1h4V12h1v1h1V12h1v1h1V12h1ZM8,11H7v1H8Zm2,0v1h1V11ZM5,11v1H6V11Zm7,0v1h1V11ZM3,11v1H4V11Zm11,0v1h1V11ZM6,10V8H5v2Zm8-2V7H13V8Zm-2,2h1V8H12Zm2,1V10H13v1ZM4,11H5V10H4ZM14,9h1V8H14ZM4,8H5V7H4ZM4,9V8H3V9Z" fill="#282827"/><path d="M17,2V4H1V2H8V3h2V2ZM10,1H8V2h2Zm0,13H8v2h2ZM5,12v1H6V12ZM3,11H4V10H5V8H4V9H3V8H2v4H3Zm9,1v1h1V12Zm3-3H14V8H13v2h1v1h1v1h1V8H15Z" fill="#b96128"/><path d="M15,5V7H14V6H13V5Zm-4,6h2V10H11Zm1-3V7H11V8ZM11,6H7V7H8V8h2V7h1ZM8,11h2V10H8ZM5,11H7V10H5ZM6,8H7V7H6ZM5,5H3V7H4V6H5Z" fill="#87c8a0"/><path d="M14,6V7H13V6ZM4,7H5V6H4ZM8,7H7V8H8Zm3,0H10V8h1ZM6,11v1H7V11Zm5,1h1V11H11Zm-1-1H8v1H7v1h4V12H10Z" fill="#5088a8"/><path d="M15,7V8H14V7ZM12,8h1V7H12ZM11,6V7h1V6ZM7,5V6h4V5ZM6,7H7V6H6ZM5,8H6V7H5ZM3,8H4V7H3ZM7,9H8v1h2V9h1V8H7Zm0,2H8V10H7Zm4,0V10H10v1Z" fill="#385088"/><path d="M12,10H11V9h1ZM7,9H6v1H7Z" fill="#bf9f2f"/><path d="M12,9H11V8h1ZM11,9H10v1h1ZM7,8H6V9H7ZM8,9H7v1H8ZM4,12H3v1H4Zm1-1H4v1H5Zm9,0H13v1h1Zm1,1H14v1h1Z" fill="#f7f8f8"/></g></svg>
